modules/coreui-icons-brand/icons/ionic.svg

<svg version="1.1" xmlns="http://www.w3.org/2000/svg" width="32" height="32" viewBox="0 0 32 32">
<title>ionic</title>
<path d="M30.563 9.369l-0.136-0.307-0.229 0.249c-0.541 0.62-1.233 1.095-2.004 1.381l-0.215 0.083 0.089 0.208c0.661 1.589 1.005 3.292 1 5.011 0 7.208-5.86 13.073-13.073 13.073s-13.068-5.86-13.068-13.068c0-7.208 5.871-13.073 13.073-13.073 1.959 0 3.844 0.423 5.599 1.261l0.208 0.099 0.089-0.204c0.323-0.76 0.828-1.421 1.473-1.937l0.261-0.213-0.297-0.156c-2.265-1.172-4.781-1.781-7.333-1.776-8.823 0-16 7.177-16 16 0 8.828 7.177 16 16 16 8.828 0 16-7.172 16-16 0-2.307-0.479-4.536-1.437-6.631zM16 8.708c-4.027 0.005-7.287 3.265-7.292 7.292 0.005 4.027 3.265 7.287 7.292 7.292 4.027-0.005 7.287-3.265 7.292-7.292-0.005-4.027-3.265-7.287-7.292-7.292zM29.792 6.031c0 1.839-1.489 3.324-3.323 3.324-1.839 0-3.329-1.485-3.329-3.324 0-4.432 6.652-4.432 6.652 0z"></path>
</svg>

<svg xmlns="http://www.w3.org/2000/svg" width="32" height="32" viewBox="0 0 32 32"><path d="M30.563 9.369l-.136-.307-.229.249a4.945 4.945 0 01-2.004 1.381l-.215.083.089.208a12.953 12.953 0 011 5.011c0 7.208-5.86 13.073-13.073 13.073S2.927 23.207 2.927 15.999C2.927 8.791 8.798 2.926 16 2.926c1.959 0 3.844.423 5.599 1.261l.208.099.089-.204a4.962 4.962 0 011.473-1.937l.261-.213-.297-.156A15.89 15.89 0 0016 0C7.177 0 0 7.177 0 16c0 8.828 7.177 16 16 16 8.828 0 16-7.172 16-16 0-2.307-.479-4.536-1.437-6.631zM16 8.708A7.299 7.299 0 008.708 16 7.299 7.299 0 0016 23.292 7.299 7.299 0 0023.292 16 7.299 7.299 0 0016 8.708zm13.792-2.677a3.322 3.322 0 01-3.323 3.324 3.324 3.324 0 01-3.329-3.324c0-4.432 6.652-4.432 6.652 0z"/></svg>
